assets/icons/carriage/DOPPELSTOCKSTEUERWAGENERSTEZWEITEKLASSE.svg

<svg width="68" height="34" viewBox="0 0 68 34" fill="none" xmlns="http://www.w3.org/2000/svg">
<g clip-path="url(#clip0_130_18)">
<rect width="68" height="34" rx="17" fill="#414141"/>
<path d="M8.49758 27V24.15H13.6876V9.75L8.73758 10.65V8.07L14.9176 6H16.8676V24.15H22.4476V27H8.49758ZM26.6959 29.7L37.0759 4.2H40.3159L29.9059 29.7H26.6959ZM44.5941 27V24.48C46.6541 22.84 48.4541 21.33 49.9941 19.95C51.5541 18.57 52.7741 17.24 53.6541 15.96C54.5341 14.68 54.9741 13.38 54.9741 12.06C54.9741 10.96 54.6641 10.1 54.0441 9.48C53.4241 8.84 52.5841 8.52 51.5241 8.52C50.3041 8.52 49.3641 8.91 48.7041 9.69C48.0441 10.45 47.7141 11.36 47.7141 12.42H44.6241C44.6441 10.94 44.9541 9.7 45.5541 8.7C46.1541 7.7 46.9641 6.94 47.9841 6.42C49.0241 5.9 50.2041 5.64 51.5241 5.64C53.6641 5.64 55.3141 6.22 56.4741 7.38C57.6341 8.52 58.2141 10.05 58.2141 11.97C58.2141 13.19 57.9441 14.37 57.4041 15.51C56.8841 16.63 56.1941 17.7 55.3341 18.72C54.4741 19.74 53.5141 20.71 52.4541 21.63C51.4141 22.55 50.3641 23.43 49.3041 24.27H58.7841V27H44.5941Z" fill="white"/>
</g>
<defs>
<clipPath id="clip0_130_18">
<rect width="68" height="34" fill="white"/>
</clipPath>
</defs>
</svg>

<svg xmlns="http://www.w3.org/2000/svg" width="68" height="34" fill="none"><g clip-path="url(#a)"><rect width="68" height="34" fill="#414141" rx="17"/><path fill="#fff" d="M8.498 27v-2.85h5.19V9.75l-4.95.9V8.07L14.918 6h1.95v18.15h5.58V27H8.498Zm18.198 2.7 10.38-25.5h3.24l-10.41 25.5h-3.21ZM44.594 27v-2.52c2.06-1.64 3.86-3.15 5.4-4.53 1.56-1.38 2.78-2.71 3.66-3.99.88-1.28 1.32-2.58 1.32-3.9 0-1.1-.31-1.96-.93-2.58-.62-.64-1.46-.96-2.52-.96-1.22 0-2.16.39-2.82 1.17-.66.76-.99 1.67-.99 2.73h-3.09c.02-1.48.33-2.72.93-3.72.6-1 1.41-1.76 2.43-2.28 1.04-.52 2.22-.78 3.54-.78 2.14 0 3.79.58 4.95 1.74 1.16 1.14 1.74 2.67 1.74 4.59 0 1.22-.27 2.4-.81 3.54-.52 1.12-1.21 2.19-2.07 3.21a26.33 26.33 0 0 1-2.88 2.91c-1.04.92-2.09 1.8-3.15 2.64h9.48V27h-14.19Z"/></g><defs><clipPath id="a"><path fill="#fff" d="M0 0h68v34H0z"/></clipPath></defs></svg>
